X: 17
T:Anderson's
M:6/8
L:1/8
Q:1/4=120
K:C % 0 sharps
B||:c2 e dcB|cGE CEG|AGF GFE|DEF GAB|cde dcB|!
cGE CEG|A<FE e name="D1X018" <A % f c2|| cef:||2c3 d<gB|1c3 CEG|A<fe dcB|cBE GAB|cde edc|dBG fed cde|! afc|gec ||:gec c2 B:||2c3></A>
